!!!OTL: Das Traenenkrueglein
!!!OTL-incipit:Merckt auf, ihr christen gross und klein,
!!!ARE: Europa, Mitteleuropa, Deutschland (Text: Pommern)
!!!YOR: 5, S. 327
!!    1692 gedruckt in Stuttgart
!!!SCT: Q0122
!!!TXL: @@DE
!!!YEM: Copyright 1995, estate of Helmut Schaffrath.
**kern	**text
*ICvox	*
*M3/4	*
*met(3)	*
*k[f#]	*
*G:	*
!LO:TX:a:t=Ton: Jch weiſ mir ein Ewiges Himmelreich	!
{4g	1._Merckt
=1-	=1-
2g	auf,
4a	ihr
=2-	=2-
2b	chri-
4cc	-sten
=3-	=3-
2dd	groß
4dd	und
=4-	=4-
2b}	klein,
{4dd	waß
=5-	=5-
2dd	ich
4b	euch
=6-	=6-
2cc	Jtʒ-
4b	-und
=7-	=7-
2.a	Sin-
=8-	=8-
2g}	-ge
{4dd	Von
=9-	=9-
2a	ei-
(8ddL	-nem
8ccJ)	.
=10-	=10-
2b	klei-
4a	-nen
=11-	=11-
2g	kin-
4f#	-de-
=12-	=12-
2e}	-lein
{4d	Ein
=13-	=13-
2g	Trost-
(8bL	-ge-
8ccJ)	.
=14-	=14-
(4.dd	-schicht
8cc)	.
4b	ich
=15-	=15-
2.a	brin-
=16-	=16-
2g;}	-ge.
==	==
!!!AGN: Ballade, Tod, Trauer, Geist; geistlich; Zeitungs - Lied
!! Tonangabe des Chorals "Ich weiss mir ein Ewigess Himmelreich" fuer
!!    diese Ballade. Taktart in 3/4 eingeteilt, gemaess der Vorgabe (3er).
!!    Letzten Notenwert rhythmisch korrigiert.
!!!ONB: ESAC (Essen Associative Code) Database: BALLADE
!!!AMT: simple triple
!!!AIN: vox
!!!EED: Helmut Schaffrath
!!!EEV: 1.0
!!@@COMMENT:"Text: A 191879. hdschr. Ldb. des Jochem Hinrich
!!Beulcke aus Voigtshagen Pommern, um 1760.
!!Melodie: Ʒahn J. Nr. 250 (Speer, 1692. Nr. 177)."
!!@@END:
!!!source: Deutsche Volkslieder mit ihren Melodien Balladen. Herausgegeben vom Deutschen Volksliedarchiv. Fünfter Teil. Freiburg/Breisgau 1965.
!!!page: 327
!!!ENC: Anna Maria Matuszewska
!!!EEV: 2025/03/05
*-	*-
